Catalina-dark/actions/22/kr_comparedirs.svg

<svg xmlns="http://www.w3.org/2000/svg" viewBox="0 0 22 22">
  <defs id="defs3051">
    <style type="text/css" id="current-color-scheme">
      .ColorScheme-Text {
        color:#f2f2f2;
      }
      </style>
  </defs>
 <path 
     style="fill:currentColor;fill-opacity:1;stroke:none" 
     d="M 6.5 3 A 1.500015 1.500015 0 0 0 5 4.5 A 1.500015 1.500015 0 0 0 6 5.9121094 L 6 15 A 2 2 0 0 0 8 17 L 9 17 L 9 19 L 12 16.5 L 9 14 L 9 16 L 8 16 A 1 1 0 0 1 7 15 L 7 5.9121094 A 1.500015 1.500015 0 0 0 8 4.5 A 1.500015 1.500015 0 0 0 6.5 3 z M 13 3 L 10 5.5 L 13 8 L 13 6 L 14 6 A 1 1 0 0 1 15 7 L 15 16.087891 A 1.500015 1.500015 0 0 0 14 17.5 A 1.500015 1.500015 0 0 0 15.5 19 A 1.500015 1.500015 0 0 0 17 17.5 A 1.500015 1.500015 0 0 0 16 16.087891 L 16 7 A 2 2 0 0 0 14 5 L 13 5 L 13 3 z M 6.5 4 A 0.5 0.5 0 0 1 7 4.5 A 0.5 0.5 0 0 1 6.5 5 A 0.5 0.5 0 0 1 6 4.5 A 0.5 0.5 0 0 1 6.5 4 z M 15.5 17 A 0.5 0.5 0 0 1 16 17.5 A 0.5 0.5 0 0 1 15.5 18 A 0.5 0.5 0 0 1 15 17.5 A 0.5 0.5 0 0 1 15.5 17 z "
     class="ColorScheme-Text"
     />
</svg>

<svg viewBox="0 0 22 22" xmlns="http://www.w3.org/2000/svg">
<defs>
<style id="current-color-scheme" type="text/css">.ColorScheme-Text {
        color:#f2f2f2;
      }</style>
</defs>
<path class="ColorScheme-Text" d="m6.5 3a1.5 1.5 0 0 0-1.5 1.5 1.5 1.5 0 0 0 1 1.4121v9.0879a2 2 0 0 0 2 2h1v2l3-2.5-3-2.5v2h-1a1 1 0 0 1-1-1v-9.0879a1.5 1.5 0 0 0 1-1.4121 1.5 1.5 0 0 0-1.5-1.5zm6.5 0-3 2.5 3 2.5v-2h1a1 1 0 0 1 1 1v9.0879a1.5 1.5 0 0 0-1 1.4121 1.5 1.5 0 0 0 1.5 1.5 1.5 1.5 0 0 0 1.5-1.5 1.5 1.5 0 0 0-1-1.4121v-9.0879a2 2 0 0 0-2-2h-1v-2zm-6.5 1a0.5 0.5 0 0 1 0.5 0.5 0.5 0.5 0 0 1-0.5 0.5 0.5 0.5 0 0 1-0.5-0.5 0.5 0.5 0 0 1 0.5-0.5zm9 13a0.5 0.5 0 0 1 0.5 0.5 0.5 0.5 0 0 1-0.5 0.5 0.5 0.5 0 0 1-0.5-0.5 0.5 0.5 0 0 1 0.5-0.5z" fill="currentColor"/>
</svg>
